X:55
T:Dawns y Glustog - The Pillow Dance
M:2/4
L:1/16
Q:80
C:Trad. arr. Ceri Rhys Matthews
R:Processional
N:Compressed arrangent
K:G
G2d2 c3B | AGAB G2D2 | G2d2 c3B | AGAB G4 :|| D2EF G3A |
F2G2 E2D2 | D2EF G3A | F2G2 E4 | G2d2 c3B | AGAB G2D2 | G2d2 c3B|
| AGAB G4 ||
